X:432
T: ZU HAUS GEDENKT MAN MEINER NICHT
N: E1625
O: Europa, Mitteleuropa, Deutschland, Hessen, Wetterau, Eberstadt
R: Staende -, Handwerker -, Gesellen - Lied; Wanderschaft
M: 3/4
L: 1/16
K: Bb
F4 | B3FF4B4 | G3GG6
B2 | A2B2c4e4 | e2f2d4
F4 | B3FF4B4 | G3GG6
B2 | A2B2c4e4 | e2f2d4
B4 | B2d2f6d2 | d3cc6
d2 | c2B2B4A2G2 | G2F2F4z2
F2 | D2F2B4d4 | d4c4z2
c2 | d2e2f6c2 | c4B4

@@@ Tune index: 5116
